X:1
T:Minuet in G (WoO 10 No. 2)
C:Ludwig van Beethoven
M:3/4
L:1/4
Q:120
K:G
% A section
|: G2B | dcB | A2G | G3 | c2B | dcB | A2G | G3 :|
% B section
|: d2c | Bcd | c2B | B3 | G2A | Bcd | cBA | G3 :|
